X:1
T:Title
%%score { ( 1 4 ) | ( 2 3 ) }
L:1/8
M:6/8
K:Bb
V:1 treble nm="Grand Piano"
V:4 treble 
V:2 bass 
V:3 bass 
V:1
 z3 z2[Q:1/4=95] [DF] | [F,DF][B,D][CE] [DF][DB][Ec] | [DFd]BG F2 G/B/ | %3
 [A,EA][Ec][EG] [A,EA][Ec][CE] | [G,EG][K:bass][F,DF][E,CE] [D,B,D]2[K:treble] [DF] | %5
 [F,DF][B,D][CE] [DF][DB][Ec] | [DFd][DB][DF] [G,EG]2 [EG] | [B,=EB][EA][EG] [B,DEB][CEA][B,EG] | %8
[M:5/8] z2 G z2 |[M:1/8] F |[M:3/4] c=B ce dc | [DB][Ec] [=E_d][F=d] [DB]2 | G^F G[FB] [Fc][Fd] | %13
 [=Ed][EG] [Ec] c2 F | [Fd][Bd] [Ad][Ge] [Fd][EA] | [Dc][DB] d[Gc] [GB]G | %16
[M:13/16] Fe3/2dd[=EG][EB] |[M:5/8] Adc [DB]2 |] %18
V:2
 z3 z2 F, | z D,E, F,B,C | z [B,D][G,E] [F,D]2 D/-[B,D]/ | z CG, z CE, | F,,G,,A,, B,,2 F, | %5
 z D,E, F,B,C | z B,F, z2 G, | z A,G, z A,G, |[M:5/8] [A,C][A,CF].[D,G,B,C] [F,A,C]2 | %9
[M:1/8] [F,A,] |[M:3/4] [F,A,E][F,_A,D] [F,=A,E][F,A,G] [F,A,F][F,A,E] | %11
 [B,,B,][B,,B,] [B,,B,][B,,B,] [B,,B,]2 | [E,B,E][E,A,E] [E,B,E][D,B,] [D,B,][D,B,] | %13
 [C,B,][C,B,] [C,B,] [F,A,F]2 [F,A,] | [B,,B,][B,,B,] [B,,B,][B,,B,] [B,,B,][B,,B,] | %15
 [B,,F,][B,,F,] [B,_A][E,E] [E,E][=E,B,_D] | %16
[M:13/16] [F,B,D][K:treble]G3/2[F,B,F][K:bass][G,B,=E][C,B,][C,C] | %17
[M:5/8] [F,CE][F,A,E][F,A,E] [B,,B,]2 |] %18
V:3
 x6 | B,,6 | B,,3- B,,2 .G, | C,3 F,3 | x6 | B,,6 | B,,3 E,3 | C,3 C,3 |[M:5/8] C,2 z z2 | %9
[M:1/8] x |[M:3/4] x6 | x6 | x6 | x6 | x6 | x6 |[M:13/16] x[K:treble] x5/2[K:bass] x3 | %17
[M:5/8] x5 |] %18
V:4
 x6 | x6 | x6 | x6 | x[K:bass] x4[K:treble] x | x6 | x6 | x6 |[M:5/8] [Fc]A z/ =E,/ F2 |[M:1/8] x | %10
[M:3/4] x6 | x6 | x6 | x6 | x6 | x6 |[M:13/16] x13/2 |[M:5/8] x5 |] %18

